X:1
T:[ID 8-11b]
T:[ID 8-11b]
T:Bezeichnung standardisiert: Menuet de Roise [2]; Menuet 3. Roise In dieser Quelle auch als: Menuet de Roise In dieser Quelle auch als: Menuet Roise In dieser Quelle auch als: Menuetto de Rosise
T:Urheber unbekannt Datum in der hier transkribierten schriftlichen Quelle: 1792
C:Urheber unbekannt
C:Datum in der hier transkribierten schriftlichen Quelle: 1792
%%score 1 2
L:1/8
M:3/4
K:D
V:1 treble nm="Violino Prima"
V:2 treble nm="Secondo"
V:1
 a2 f2 Tg2 | a3 b a2 | g2 e2 Tf2 | g3 a g2 | f/g/a/b/ a2 z2 | d'3/2c'/4b/4 a2 z2 | %6
 a3/2(g/4a/4) bagf | e6 ::"^O)" e2 c2 d2 | e3 f e2 |"^O)" e2 c2 d2 | e3 f e2 | g3/2(f/4g/4) e2 z2 | %13
 g3/2(f/4g/4) e2 z2 | f/g/a/b/ aa b/a/g/f/ | e6 | a2 f2 g2 | a3 b a2 | g2 e2 f2 | g3 a g2 | %20
 f/g/a/b/ a2 z2 | d'3/2c'/4b/4 a2 z | a>a agfe | e4 d2 :| %24
V:2
 !fermata!f2 d2 Te2 | f3 g f2 | e2 c2 Td2 | e3 f e2 | d/e/f/g/ f4 | b3/2(a/4g/4) f4 | %6
 f3/2(e/4f/4) gfed | c6 ::"^O)" c2 A2 B2 | c3 d c2 |"^O)" c2 A2 B2 | c3 d c2 | e3/2d/4e/4 e4 | %13
 e3/2d/4e/4 e4 | d/e/f/g/ ff g/f/e/d/ | B6 | f2 d2 Te2 | f3 g f2 | e2 c2 Td2 | e3 f e2 | %20
 d/e/f/g/ a4 | b3/2a/4g/4 (4:3:1f4 | f>f feGF | G4 F2 :| %24

